X: 37454
T: Sliabh Na mBan
R: waltz
M: 3/4
K: Gmajor
|:G2 A/B/c d2|B4 A2|G2 G2 Bd|g4 ag|f d3 B2|~c4 Bc|d3 e dB|B2 G4|c/d/ A2 G3|F2 G4:|A2 Bc de (e/f/)|
M:2/4
g3 B|c3 d|f3 e|d3 A/G/|B4|A2 G2|G2 Bd|g3 B|c3 d|f3 e|~d4|D2 EF|
M:3/4
G4 c2|B4 A2|G2 G2 Bd|g4 ag|f d3 B2|~c4 Bc|d3 e dB|B2 G4|c/d/ A2 G3|F2 G4||

